X: 6
T: The Porthole Of The Kelp
R: reel
M: 4/4
L: 1/8
K: Ddor
F2DE F2DE|FEFG ECCE|F2DE FGAG|FDEC A,DDE|
F2DE FGAB|cAGF EDCE|DEFG AddB|cAGE EDD2:|
d2 Ad dcAG|F2DF ECC2|d2 Ad dcAG|Adce d2 de|
fdec dcAB|cAGF EDCE|DEFG AddB|cAGE EDD2:|


Tune 263	Setting 14934

